X:1
T:Title
%%score { 1 | 2 }
L:1/8
Q:1/4=110
M:4/4
K:C
V:1 treble nm="Grand Piano"
V:2 bass 
V:1
 [CE]3 [DF] [EG]2 [FA]2 | [EG]2 [Ec]4 z2 | [EG]2 [Ec]2 B2 c2 | d6 z2 | E3 [DF] [EG]2 [FA]2 | %5
w: Geor.~H.~Ryder * * *|||||
 [EG]2 [Ec]4 z2 | [Gd]3 [GB] [^Fc]2 [FA]2 | [B,G]6 z2 | [Ge]2 [Ge]2 d2 d2 | c2 c2 B2 B2 | %10
w: |||||
 A3 A G2 c2 | d6 z2 | [Ge]2 [Ge]2 d2 d2 | c2 c2 B2 B2 | A2 [Af]2 [Ge]3 [Fd] | [Ec]6 z2 |] %16
w: ||||||
V:2
 [C,G,]3 [C,G,] [C,G,]2 [C,C]2 | [C,C]2 [C,G,]4 z2 | [C,C]2 [C,C]2[K:treble] [G,DF]2 [G,CE]2 | %3
 [G,B,G]6 z2 | [C,G,C]3 [C,G,] [C,G,]2 [C,C]2 | [C,C]2 [C,G,]4 z2 | [G,B,]3 [G,D] [D,C]2 [D,C]2 | %7
 [G,,G,]6 z2 | [C,C]2 [C,C]2[K:treble] [G,B,F]2 [G,B,F]2 | [A,E]2 [A,E]2 [E,^G,E]2 [E,G,E]2 | %10
 [F,CF]3 [F,CF] [E,C]2[K:treble] [A,D^F]2 | [G,B,G]6 z2 | %12
 [C,C]2 [C,C]2[K:treble] [G,B,F]2 [G,B,F]2 | [A,E]2 [A,E]2 [E,^G,E]2 [E,G,E]2 | %14
 [F,CF]2 [D,D]2 [G,B,]3 [G,B,] | [C,C]6 z2 |] %16

